X:142
T: DU ALLER WESEN VATER
N: F0266
O: Europa, Mitteleuropa, Deutschland
R: Jugend - Lied, Belehrung, religioes; Morgen - Lied
M: 4/4
L: 1/16
K: D
F,4 | A,4F,4B,4B,4 | A,8F,4
D4 | C4B,4E4^G,4 | A,8z4
A,4 | C6E2D4F4 | E4G,4F,4
B,4 | A,4D3EF4E4 | D8z4

@@@ Tune index: 5573
